X: 21
T: The Ladies Pantalettes
C: Trad.
Z: Gwen 2019-01-02
R: Reel
M: 2/2
Q: 1/2=90
K: G
|: BdcA GGGB | AFFF DFAF | BdcA G2ge |1 fdcA BGGA :|2 fdcA BGG2
|  fgaf g2fg | aaag fdd2 | fgaf g2ag | fdcA BGG2 |
   fgaf g2fg | aaag fdde | fefg a2ag | fdcA d2cA |

